X: 33270
T: Purfy
R: jig
M: 6/8
K: Dmajor
"Bm"~B3 BAB|dBB BAF|"Em" GB d3E|"F#m" FA c3A|
"G"~B3 BAB|dBB BAF|"F#m"edB AFA|"F#/A"^A2 B2 c2|
"Bm"~B3 BAB|dBB BAF|"Em"GB d2 ef|"F#m"e2 c3 A|
"G"~B3 BAB|dBB eBf|"Em"~B3 dBB|"A"ABc "Bm"B3:|
|:"Bm"fdd dcB|Fdd dcB|"A"~Ace ecA|"G"GBd ~F2 E|
"Em"~F2 d dcB|Fdd ~d2 e|"G"fed "A"efd|"Bm"B3 B3|
fdB Bfd|z "A"ec a2 b|"G"fdB Bcd|"A"~c2 B cAA|
"Em"FBd fBd|"Fm"eAc ecA|"G"dcB "F#/A"^ABc|"Bm"B3 B3:|

